src/icons/search-triggers.svg

<?xml version="1.0" encoding="UTF-8"?>
<svg width="38px" height="38px" viewBox="0 0 38 38" version="1.1" xmlns="http://www.w3.org/2000/svg" xmlns:xlink="http://www.w3.org/1999/xlink">
    <!-- Generator: Sketch 59 (86127) - https://sketch.com -->
    <title>HDL/Icon/Standard/Search/triggers</title>
    <desc>Created with Sketch.</desc>
    <g id="Colors" stroke="none" stroke-width="1" fill="none" fill-rule="evenodd">
        <g id="Search-Icons" transform="translate(-100.000000, -430.000000)">
            <g id="HDL/Icon/Standard/Search/triggers" transform="translate(101.000000, 431.000000)">
                <g id="Triggers">
                    <circle id="Oval" stroke="#D4ECFC" fill="#F7FCFF" cx="18" cy="18" r="18"></circle>
                    <path d="M13.4042553,9 C13.0297872,9 12.7234043,9.30638298 12.7234043,9.68085106 L12.7234043,10.3617021 L10.6808511,10.3617021 C10.306383,10.3617021 10,10.6680851 10,11.0425532 L10,24.6595745 C10,25.0340426 10.306383,25.3404255 10.6808511,25.3404255 L24.9787234,25.3404255 C25.3531915,25.3404255 25.6595745,25.0340426 25.6595745,24.6595745 L25.6595745,21.9361702 C25.6595745,21.8 25.5914894,21.6978723 25.4893617,21.6297872 C25.387234,21.5617021 25.2510638,21.5617021 25.1489362,21.6297872 C25.0468085,21.6978723 24.9787234,21.8 24.9787234,21.9361702 L24.9787234,24.6595745 L10.6808511,24.6595745 L10.6808511,14.4468085 L24.9787234,14.4468085 L24.9787234,16.8297872 C24.9787234,16.9659574 25.0468085,17.0680851 25.1489362,17.1361702 C25.2510638,17.2042553 25.387234,17.2042553 25.4893617,17.1361702 C25.5914894,17.0680851 25.6595745,16.9659574 25.6595745,16.8297872 L25.6595745,11.0425532 C25.6595745,10.6680851 25.3531915,10.3617021 24.9787234,10.3617021 L22.9361702,10.3617021 L22.9361702,9.68085106 C22.9361702,9.30638298 22.6297872,9 22.2553191,9 L21.5744681,9 C21.2,9 20.893617,9.30638298 20.893617,9.68085106 L20.893617,10.3617021 L14.7659574,10.3617021 L14.7659574,9.68085106 C14.7659574,9.30638298 14.4595745,9 14.0851064,9 L13.4042553,9 Z M13.4042553,9.68085106 L14.0851064,9.68085106 L14.0851064,11.7234043 L13.4042553,11.7234043 L13.4042553,10.7702128 C13.4042553,10.7361702 13.4042553,10.7021277 13.4042553,10.6680851 L13.4042553,9.68085106 Z M21.5744681,9.68085106 L22.2553191,9.68085106 L22.2553191,10.6340426 C22.2553191,10.6680851 22.2553191,10.7021277 22.2553191,10.7361702 L22.2553191,11.7234043 L21.5744681,11.7234043 L21.5744681,9.68085106 Z M10.6808511,11.0425532 L12.7234043,11.0425532 L12.7234043,11.7234043 C12.7234043,12.0978723 13.0297872,12.4042553 13.4042553,12.4042553 L14.0851064,12.4042553 C14.4595745,12.4042553 14.7659574,12.0978723 14.7659574,11.7234043 L14.7659574,11.0425532 L20.893617,11.0425532 L20.893617,11.7234043 C20.893617,12.0978723 21.2,12.4042553 21.5744681,12.4042553 L22.2553191,12.4042553 C22.6297872,12.4042553 22.9361702,12.0978723 22.9361702,11.7234043 L22.9361702,11.0425532 L24.9787234,11.0425532 L24.9787234,13.7659574 L10.6808511,13.7659574 L10.6808511,11.0425532 Z M23.1404255,16.6255319 C23.0042553,16.6255319 22.8680851,16.693617 22.8340426,16.8297872 C22.7659574,16.9659574 22.8,17.1021277 22.9021277,17.2042553 L24.4680851,18.8723404 L18.5106383,18.8723404 C18.3744681,18.8723404 18.2723404,18.9404255 18.2042553,19.0425532 C18.1361702,19.1446809 18.1361702,19.2808511 18.2042553,19.3829787 C18.2723404,19.4851064 18.3744681,19.5531915 18.5106383,19.5531915 L24.5361702,19.5531915 L22.9361702,21.2553191 C22.8,21.3914894 22.8,21.5957447 22.9361702,21.7319149 C23.0723404,21.8680851 23.2765957,21.8680851 23.412766,21.7319149 L25.7957447,19.2468085 L23.412766,16.7617021 C23.3446809,16.693617 23.2425532,16.6255319 23.1404255,16.6255319 Z" id="Shape" fill="#00ADE4" fill-rule="nonzero"></path>
                </g>
            </g>
        </g>
    </g>
</svg>

<?xml version="1.0" encoding="utf-8"?>
<!-- Generator: Adobe Illustrator 20.1.0, SVG Export Plug-In . SVG Version: 6.00 Build 0)  -->
<svg version="1.1" id="Layer_1" xmlns="http://www.w3.org/2000/svg" xmlns:xlink="http://www.w3.org/1999/xlink" x="0px" y="0px"
	 viewBox="0 0 38 38" style="enable-background:new 0 0 38 38;" xml:space="preserve">
<style type="text/css">
	.st0{fill:#F7FCFF;stroke:#D4ECFC;}
	.st1{fill:#00ADE4;}
</style>
<title>HDL/Icon/Standard/Search/triggers</title>
<desc>Created with Sketch.</desc>
<g id="Colors">
	<g id="Search-Icons" transform="translate(-100.000000, -430.000000)">
		<g id="HDL_x2F_Icon_x2F_Standard_x2F_Search_x2F_triggers" transform="translate(101.000000, 431.000000)">
			<g id="Triggers">
				<circle id="Oval" class="st0" cx="18" cy="18" r="18"/>
				<path id="Shape" class="st1" d="M13.4,9c-0.4,0-0.7,0.3-0.7,0.7v0.7h-2c-0.4,0-0.7,0.3-0.7,0.7v13.6c0,0.4,0.3,0.7,0.7,0.7H25
					c0.4,0,0.7-0.3,0.7-0.7v-2.7c0-0.1-0.1-0.2-0.2-0.3c-0.1-0.1-0.2-0.1-0.3,0C25,21.7,25,21.8,25,21.9v2.7H10.7V14.4H25v2.4
					c0,0.1,0.1,0.2,0.2,0.3c0.1,0.1,0.2,0.1,0.3,0c0.1-0.1,0.2-0.2,0.2-0.3V11c0-0.4-0.3-0.7-0.7-0.7h-2V9.7c0-0.4-0.3-0.7-0.7-0.7
					h-0.7c-0.4,0-0.7,0.3-0.7,0.7v0.7h-6.1V9.7c0-0.4-0.3-0.7-0.7-0.7H13.4z M13.4,9.7h0.7v2h-0.7v-1c0,0,0-0.1,0-0.1V9.7z
					 M21.6,9.7h0.7v1c0,0,0,0.1,0,0.1v1h-0.7V9.7z M10.7,11h2v0.7c0,0.4,0.3,0.7,0.7,0.7h0.7c0.4,0,0.7-0.3,0.7-0.7V11h6.1v0.7
					c0,0.4,0.3,0.7,0.7,0.7h0.7c0.4,0,0.7-0.3,0.7-0.7V11h2v2.7H10.7V11z M23.1,16.6c-0.1,0-0.3,0.1-0.3,0.2c-0.1,0.1,0,0.3,0.1,0.4
					l1.6,1.7h-6c-0.1,0-0.2,0.1-0.3,0.2c-0.1,0.1-0.1,0.2,0,0.3c0.1,0.1,0.2,0.2,0.3,0.2h6l-1.6,1.7c-0.1,0.1-0.1,0.3,0,0.5
					c0.1,0.1,0.3,0.1,0.5,0l2.4-2.5l-2.4-2.5C23.3,16.7,23.2,16.6,23.1,16.6z"/>
			</g>
		</g>
	</g>
</g>
</svg>
